src/images/icons/telegram-black.svg

<svg width="20" height="20" viewBox="0 0 20 20" fill="none" xmlns="http://www.w3.org/2000/svg">
<path d="M9.99967 0.833374C4.93967 0.833374 0.833008 4.94004 0.833008 10C0.833008 15.06 4.93967 19.1667 9.99967 19.1667C15.0597 19.1667 19.1663 15.06 19.1663 10C19.1663 4.94004 15.0597 0.833374 9.99967 0.833374ZM14.253 7.06671C14.1155 8.51504 13.5197 12.035 13.2172 13.6575C13.0888 14.345 12.8322 14.5742 12.5938 14.6017C12.0622 14.6475 11.6588 14.2534 11.1455 13.9142C10.3388 13.3825 9.88051 13.0525 9.10134 12.5392C8.19384 11.9434 8.78051 11.6134 9.30301 11.0817C9.44051 10.9442 11.7872 8.80837 11.833 8.61587C11.8394 8.58672 11.8385 8.55645 11.8305 8.52769C11.8226 8.49894 11.8077 8.47257 11.7872 8.45087C11.7322 8.40504 11.6588 8.42337 11.5947 8.43254C11.5122 8.45087 10.2288 9.30337 7.72634 10.99C7.35967 11.2375 7.02967 11.3659 6.73634 11.3567C6.40634 11.3475 5.78301 11.1734 5.31551 11.0175C4.73801 10.8342 4.28884 10.7334 4.32551 10.4125C4.34384 10.2475 4.57301 10.0825 5.00384 9.90837C7.68051 8.74421 9.45884 7.97421 10.348 7.60754C12.8963 6.54421 13.4188 6.36087 13.7672 6.36087C13.8405 6.36087 14.0147 6.37921 14.1247 6.47087C14.2163 6.54421 14.2438 6.64504 14.253 6.71837C14.2438 6.77337 14.2622 6.93837 14.253 7.06671Z" fill="#111111"/>
</svg>

<svg width="20" height="20" fill="none" xmlns="http://www.w3.org/2000/svg"><path d="M10 .833C4.94.833.833 4.94.833 10S4.94 19.167 10 19.167 19.166 15.06 19.166 10 15.06.833 10 .833zm4.253 6.234c-.137 1.448-.733 4.968-1.036 6.59-.128.688-.385.917-.623.945-.532.046-.935-.349-1.448-.688-.807-.531-1.265-.861-2.045-1.375-.907-.596-.32-.926.202-1.457.138-.138 2.484-2.274 2.53-2.466a.183.183 0 0 0-.046-.165c-.055-.046-.128-.028-.192-.018-.083.018-1.366.87-3.869 2.557-.366.248-.696.376-.99.367-.33-.01-.953-.184-1.42-.34-.578-.183-1.027-.284-.99-.604.018-.165.247-.33.678-.505 2.677-1.164 4.455-1.934 5.344-2.3 2.548-1.064 3.07-1.247 3.42-1.247.072 0 .247.018.357.11.091.073.119.174.128.247-.01.055.01.22 0 .349z" fill="#111"/></svg>
